img/svg/clients-logo-3.svg

<svg width="128" height="20" viewBox="0 0 128 20" fill="none" xmlns="http://www.w3.org/2000/svg">
<path fill-rule="evenodd" clip-rule="evenodd" d="M6.86119 0C9.98996 0 12.5143 1.69561 12.5143 4.41416C12.5143 6.27171 11.4714 7.64417 11.0605 7.64417C10.6765 7.64417 8.7005 6.46003 8.7005 6.1105C8.7005 5.97567 9.0845 5.35649 9.0845 4.7373C9.0845 3.60665 8.28811 2.79915 6.91647 2.79915C5.57173 2.79915 4.61098 3.68726 4.61098 5.00623C4.61098 6.40654 6.14773 7.24115 8.1514 8.23697C8.30841 8.31624 8.46593 8.39574 8.62342 8.47576L9.09527 8.71755C11.6056 10.0179 13.9697 11.5119 13.9697 14.2398C13.9697 17.7123 10.8954 20 6.80665 20C2.79931 20 0 18.0347 0 14.5087C0 12.2474 1.42767 10.4975 1.75639 10.4975C2.19567 10.4975 4.08952 11.7901 4.08952 12.1397C4.08952 12.3551 3.43059 13.0549 3.43059 14.2398C3.43059 15.9896 4.9128 17.1737 6.91647 17.1737C9.00157 17.1737 10.3194 15.9625 10.3194 14.3204C10.3194 12.7588 8.94704 11.8707 5.92808 10.4441C3.29388 9.20569 1.04292 7.88671 1.04292 4.92562C1.04292 2.15359 3.48588 0 6.86119 0ZM93.3374 0C96.6313 0 98.7171 2.20708 98.7171 5.06045C98.7171 7.88671 96.5491 10.0667 93.7498 10.8207C93.5847 10.8749 93.3651 10.902 93.2283 10.902C92.8712 10.902 92.0203 8.77482 92.0203 8.42529C92.0203 8.31758 92.1025 8.23697 92.2399 8.18275C94.1607 7.42874 95.3411 6.43365 95.3411 4.92562C95.3411 3.76859 94.6276 2.93398 93.2829 2.93398C90.4836 2.93398 88.453 6.56774 88.453 10.4712C88.453 14.4545 91.0872 17.066 94.6276 17.066C97.1873 17.066 99.1552 15.7886 100.213 14.0711C100.185 13.7939 100.171 13.509 100.171 13.2168C100.171 9.44816 102.642 6.62116 106.045 6.62116C107.773 6.62116 108.981 7.24108 109.832 7.99436L109.915 7.96725V7.61772C109.915 7.21397 110.189 6.97142 110.546 6.97142H112.659C113.07 6.97142 113.318 7.21397 113.318 7.67121C113.318 8.18268 113.016 12.0861 113.016 14.2126C113.016 15.4238 113.51 16.4197 114.47 16.4197C115.812 16.4197 116.952 14.7629 117.6 13.2742L117.599 7.64439C117.599 7.24064 117.818 6.97172 118.23 6.97172H120.426C120.865 6.97172 121.112 7.21426 121.112 7.6715C121.112 9.17879 120.974 13.0551 120.974 14.078C120.974 15.4505 121.441 16.4199 122.566 16.4199C124.076 16.4199 125.366 14.4818 125.86 13.1093C125.915 12.9745 125.969 12.8939 126.134 12.8939C126.381 12.8939 128 13.6201 128 13.9168C128 13.9974 127.973 14.1052 127.945 14.1858C127.177 16.5005 125.146 19.3539 121.798 19.3539C119.978 19.3539 118.684 18.5865 118.048 17.1722C117.022 18.3649 115.543 19.3536 113.565 19.3536C111.589 19.3536 110.161 18.4384 110.161 16.8776V16.608L110.052 16.5816C109.365 18.0618 107.829 19.3536 105.441 19.3536C103.559 19.3536 102.061 18.4793 101.15 17.0139C99.6515 18.7048 97.269 20 94.1607 20C88.5897 20 84.8028 16.2585 84.8028 10.5247C84.8028 4.71019 88.2602 0 93.3374 0ZM54.6144 0.564886C55.0805 0.564886 55.3002 0.83381 55.3002 1.29179C55.3002 3.06873 54.9438 11.4398 54.9438 14.2397C54.9438 15.4773 55.3824 16.4197 56.4806 16.4197C57.8926 16.4197 59.0813 14.5857 59.6645 13.2717L59.6636 7.64439C59.6636 7.24064 59.8832 6.97172 60.2949 6.97172H62.4905C62.9298 6.97172 63.1763 7.21426 63.1763 7.6715C63.1763 9.17879 63.0396 13.0551 63.0396 14.078C63.0396 15.4505 63.5058 16.4199 64.6309 16.4199C65.7994 16.4199 66.8359 15.2591 67.4741 14.0981C67.427 13.7699 67.4035 13.4304 67.4035 13.0822C67.4035 9.36711 70.1475 6.62146 74.237 6.62146C78.1614 6.62146 80.7135 9.36711 80.7135 12.8668C80.7135 16.0704 78.408 19.3539 73.8523 19.3539C71.5176 19.3539 69.6785 18.4108 68.5715 16.8873C67.4969 18.2651 65.9314 19.3539 63.8629 19.3539C62.0474 19.3539 60.755 18.5901 60.1166 17.182C59.0428 18.411 57.5322 19.3536 55.6565 19.3536C53.3787 19.3536 51.7874 18.3043 51.7874 16.6893V16.4739L51.6776 16.4468C50.9918 17.8735 49.4819 19.3536 47.1219 19.3536C45.2177 19.3536 43.7354 18.4898 42.8238 17.0689C41.7516 18.3667 40.2182 19.3541 38.2297 19.3541C36.0064 19.3541 34.6347 18.1963 34.6347 16.6084C34.6347 16.4736 34.6347 16.2582 34.6616 16.1775L34.5518 16.1504C33.8114 17.7391 32.274 19.3541 29.8041 19.3541C28.0343 19.3541 26.8215 18.54 26.2162 17.1566C25.1331 18.3873 23.5472 19.3539 21.3519 19.3539C18.3599 19.3539 16.3293 17.4158 16.3293 14.5089V9.69026H15.6159C15.2042 9.69026 15.0122 9.55543 15.0122 9.15168V7.64439C15.0122 7.34835 15.1489 7.13292 15.506 7.13292H16.3293V4.06412C16.3293 3.60687 16.5766 3.33795 16.9882 3.33795H19.0741C19.5126 3.33795 19.7323 3.60687 19.7323 4.06412V7.18715C20.6108 7.16004 21.653 7.13292 22.3119 7.13292C22.5592 7.13292 22.7512 7.26775 22.7512 7.56379V9.20591C22.7512 9.58255 22.5869 9.69026 22.285 9.69026C21.653 9.69026 20.6385 9.66315 19.7323 9.66315V13.1628C19.7323 15.2087 20.2814 16.4199 22.0654 16.4199C23.9983 16.4199 25.2417 14.5146 25.7701 13.2203L25.7699 7.67092C25.7699 7.18656 26.0172 6.97113 26.4557 6.97113H28.5968C29.063 6.97113 29.2826 7.24079 29.2826 7.64454C29.2826 9.31377 29.1459 12.0858 29.1459 13.8899C29.1459 15.5855 29.5568 16.4201 30.7925 16.4201C32.7132 16.4201 34.3598 12.6515 34.3598 8.58614V7.67092C34.3598 7.24079 34.5518 6.97113 35.0187 6.97113H37.1868C37.6529 6.97113 37.8726 7.21367 37.8726 7.67092C37.8726 8.14764 37.7549 9.87183 37.6737 11.6249L37.6495 12.1781C37.6193 12.9131 37.5984 13.6305 37.5984 14.2394C37.5984 15.4235 38.0922 16.4201 39.1082 16.4201C40.2413 16.4201 41.2197 15.2363 41.846 14.1225C41.8136 13.8205 41.7974 13.509 41.7974 13.1896C41.7974 9.66359 44.0753 6.62116 47.7532 6.62116C49.4543 6.62116 50.9918 7.42867 51.8419 8.07496L51.9518 8.04858V1.26467C51.9518 0.80743 52.1714 0.564886 52.583 0.564886H54.6144ZM74.1817 9.31362C72.1235 9.31362 70.9708 11.1712 70.9708 13.0551C70.9708 15.101 72.1781 16.6625 74.0443 16.6625C76.0479 16.6625 77.1185 14.8855 77.1185 12.7591C77.1185 10.848 76.1301 9.31362 74.1817 9.31362ZM48.8506 9.55587C46.847 9.55587 45.3379 11.1438 45.3379 13.378C45.3379 15.2355 46.3531 16.4197 47.8353 16.4197C50.2507 16.4197 51.5401 12.9471 51.5401 10.74C50.9641 10.2014 49.9757 9.55587 48.8506 9.55587ZM107.225 9.55587C105.221 9.55587 103.712 11.1438 103.712 13.4051C103.712 15.2084 104.728 16.4197 106.155 16.4197C108.734 16.4197 109.915 12.7859 109.915 10.74C109.338 10.2014 108.35 9.55587 107.225 9.55587ZM61.4752 1.21074C62.4905 1.21074 63.3414 1.77643 63.3414 2.93347C63.3414 4.03774 62.6003 4.81813 61.3654 4.81813C60.2949 4.81813 59.5545 4.09123 59.5545 2.96058C59.5545 1.93764 60.3494 1.21074 61.4752 1.21074ZM119.41 1.21074C120.426 1.21074 121.276 1.77643 121.276 2.93347C121.276 4.03774 120.536 4.81813 119.3 4.81813C118.23 4.81813 117.489 4.09123 117.489 2.96058C117.489 1.93764 118.285 1.21074 119.41 1.21074Z" fill="white"/>
</svg>

<svg width="128" height="20" fill="none" xmlns="http://www.w3.org/2000/svg"><path fill-rule="evenodd" clip-rule="evenodd" d="M6.861 0c3.129 0 5.653 1.696 5.653 4.414 0 1.858-1.043 3.23-1.454 3.23-.383 0-2.36-1.184-2.36-1.534 0-.134.385-.754.385-1.373 0-1.13-.797-1.938-2.169-1.938-1.344 0-2.305.888-2.305 2.207 0 1.4 1.537 2.235 3.54 3.231l.472.239.472.242c2.51 1.3 4.875 2.794 4.875 5.522 0 3.472-3.075 5.76-7.163 5.76C2.799 20 0 18.035 0 14.509c0-2.262 1.428-4.011 1.756-4.011.44 0 2.334 1.292 2.334 1.642 0 .215-.66.915-.66 2.1 0 1.75 1.483 2.934 3.486 2.934 2.086 0 3.403-1.211 3.403-2.854 0-1.561-1.372-2.45-4.39-3.876-2.635-1.238-4.886-2.557-4.886-5.518C1.043 2.154 3.486 0 6.86 0zm86.476 0c3.294 0 5.38 2.207 5.38 5.06 0 2.827-2.168 5.007-4.967 5.76a1.892 1.892 0 01-.522.082c-.357 0-1.208-2.127-1.208-2.477 0-.107.083-.188.22-.242 1.92-.754 3.101-1.75 3.101-3.257 0-1.157-.713-1.992-2.058-1.992-2.8 0-4.83 3.634-4.83 7.537 0 3.983 2.634 6.595 6.175 6.595 2.56 0 4.527-1.277 5.585-2.995a8.5 8.5 0 01-.042-.854c0-3.769 2.471-6.596 5.874-6.596 1.728 0 2.936.62 3.787 1.373l.083-.027v-.35c0-.403.274-.646.631-.646h2.113c.411 0 .659.243.659.7 0 .512-.302 4.415-.302 6.542 0 1.21.494 2.207 1.454 2.207 1.342 0 2.482-1.657 3.13-3.146l-.001-5.63c0-.403.219-.672.631-.672h2.196c.439 0 .686.242.686.7 0 1.507-.138 5.383-.138 6.406 0 1.373.467 2.342 1.592 2.342 1.51 0 2.8-1.938 3.294-3.31.055-.135.109-.216.274-.216.247 0 1.866.726 1.866 1.023a.92.92 0 01-.055.269c-.768 2.314-2.799 5.168-6.147 5.168-1.82 0-3.114-.767-3.75-2.182-1.026 1.193-2.505 2.182-4.483 2.182-1.976 0-3.404-.916-3.404-2.476v-.27l-.109-.026c-.687 1.48-2.223 2.772-4.611 2.772-1.882 0-3.38-.875-4.291-2.34C99.651 18.704 97.269 20 94.16 20c-5.57 0-9.357-3.741-9.357-9.475C84.803 4.71 88.26 0 93.337 0zM54.614.565c.467 0 .686.269.686.727 0 1.777-.356 10.148-.356 12.948 0 1.237.438 2.18 1.537 2.18 1.412 0 2.6-1.834 3.183-3.148V7.644c0-.403.22-.672.63-.672h2.197c.439 0 .685.242.685.7 0 1.507-.136 5.383-.136 6.406 0 1.373.466 2.342 1.59 2.342 1.17 0 2.206-1.16 2.844-2.322a7.154 7.154 0 01-.07-1.016c0-3.715 2.743-6.46 6.833-6.46 3.924 0 6.477 2.745 6.477 6.245 0 3.203-2.306 6.487-6.862 6.487-2.334 0-4.174-.943-5.28-2.467-1.075 1.378-2.64 2.467-4.71 2.467-1.815 0-3.107-.764-3.745-2.172-1.074 1.229-2.585 2.172-4.46 2.172-2.278 0-3.87-1.05-3.87-2.665v-.215l-.11-.027c-.685 1.427-2.195 2.907-4.555 2.907-1.904 0-3.387-.864-4.298-2.285-1.072 1.298-2.606 2.285-4.594 2.285-2.224 0-3.595-1.158-3.595-2.746 0-.134 0-.35.027-.43l-.11-.028c-.74 1.59-2.278 3.204-4.748 3.204-1.77 0-2.982-.814-3.588-2.197-1.083 1.23-2.669 2.197-4.864 2.197-2.992 0-5.023-1.938-5.023-4.845V9.69h-.713c-.412 0-.604-.135-.604-.538V7.644c0-.296.137-.511.494-.511h.823V4.064c0-.457.248-.726.66-.726h2.085c.439 0 .658.269.658.726v3.123a98.736 98.736 0 012.58-.054c.247 0 .44.135.44.43v1.643c0 .377-.165.484-.467.484-.632 0-1.646-.027-2.553-.027v3.5c0 2.046.55 3.257 2.333 3.257 1.933 0 3.177-1.905 3.705-3.2V7.67c0-.483.247-.699.686-.699h2.14c.467 0 .687.27.687.674 0 1.669-.137 4.44-.137 6.245 0 1.695.41 2.53 1.646 2.53 1.921 0 3.568-3.769 3.568-7.834v-.915c0-.43.192-.7.659-.7h2.168c.466 0 .686.243.686.7 0 .477-.118 2.2-.2 3.954l-.023.553c-.03.735-.052 1.452-.052 2.061 0 1.184.494 2.181 1.51 2.181 1.133 0 2.112-1.184 2.738-2.298a8.75 8.75 0 01-.049-.932c0-3.526 2.278-6.569 5.956-6.569 1.701 0 3.239.808 4.089 1.454l.11-.026V1.265c0-.458.22-.7.631-.7h2.031zm19.568 8.749c-2.058 0-3.211 1.857-3.211 3.741 0 2.046 1.207 3.608 3.073 3.608 2.004 0 3.075-1.777 3.075-3.904 0-1.911-.989-3.445-2.937-3.445zm-25.331.242c-2.004 0-3.513 1.588-3.513 3.822 0 1.857 1.015 3.042 2.497 3.042 2.416 0 3.705-3.473 3.705-5.68-.576-.539-1.564-1.184-2.69-1.184zm58.374 0c-2.004 0-3.513 1.588-3.513 3.85 0 1.802 1.016 3.014 2.443 3.014 2.579 0 3.76-3.634 3.76-5.68-.577-.539-1.565-1.184-2.69-1.184zM61.475 1.21c1.015 0 1.866.565 1.866 1.722 0 1.105-.74 1.885-1.976 1.885-1.07 0-1.81-.727-1.81-1.857 0-1.023.794-1.75 1.92-1.75zm57.935 0c1.016 0 1.866.565 1.866 1.722 0 1.105-.74 1.885-1.976 1.885-1.07 0-1.811-.727-1.811-1.857 0-1.023.796-1.75 1.921-1.75z" fill="#fff"/></svg>
